src/assets/technik-crew-logo.svg

<svg width="138" height="68" viewBox="0 0 138 68" fill="none" xmlns="http://www.w3.org/2000/svg">
<path fill-rule="evenodd" clip-rule="evenodd" d="M47.3601 0L46.6887 0.860297C46.6887 0.860297 46.6803 6.58994 46.6887 8.5243C46.6913 9.12946 46.7549 11.5509 44.8745 12.4742C42.9756 13.4067 41.9511 14.0622 41.4365 14.851C40.8948 15.6819 40.3803 16.034 40.3723 17.8279C40.3639 19.6678 40.3782 20.1675 40.3723 20.9278C40.3652 21.8142 39.3045 21.8633 39.3045 21.8633V22.7631H41.3017C41.3017 22.7631 41.3115 20.3336 41.3017 19.2096C41.2925 18.1576 41.5062 16.3096 44.888 14.8615C47.1925 13.8748 47.3913 13.1084 47.3601 10.2398C47.3586 10.1003 47.3601 0 47.3601 0Z" fill="white"/>
<path fill-rule="evenodd" clip-rule="evenodd" d="M49.1913 10.4324C49.1914 10.2929 49.1919 8.27798 49.1919 8.27798C49.1919 8.27798 49.6776 11.8133 51.5578 12.7366C53.4567 13.669 54.5243 14.1084 55.1176 14.8401C55.6767 15.5296 56.1821 15.6203 56.1879 17.7702C56.1928 19.6102 56.1857 20.1245 56.1916 20.8847C56.1987 21.7711 57.2496 21.8523 57.2496 21.8523V22.7521H55.2524C55.2524 22.7521 55.2426 20.3226 55.2524 19.1986C55.2616 18.1466 55.2548 16.3456 51.6174 14.9687C49.0088 13.9812 49.1876 13.1093 49.1913 10.4324Z" fill="white"/>
<path fill-rule="evenodd" clip-rule="evenodd" d="M14.419 31.7989C14.4251 31.8364 14.427 31.8641 14.4245 31.8814C14.2748 32.9296 14.7241 35.9247 15.0984 36.8981C15.1688 37.0812 14.9813 37.2449 14.7218 37.3818C15.2735 39.4213 18.543 52.8626 9.48268 54.8683C-0.223914 57.0172 1.14105 63.554 8.57808 63.554C13.7446 63.554 16.3142 66.1747 21.1062 65.6931C27.0098 65.1 23.3449 56.1426 26.4225 52.7718C29.5672 49.3275 31.9094 50.0101 31.9634 45.0596C32.0381 38.1709 29.8593 32.982 34.7337 31.3572C35.8569 30.9829 39.1514 29.7848 39.6755 28.8114C40.4464 27.3799 40.2746 24.2439 40.2746 24.2439H41.248C41.248 24.2439 41.5087 28.1747 41.248 28.9612C40.9872 29.7476 41.2402 30.6309 38.3278 32.3306C35.4154 34.0303 33.1974 33.6464 32.9807 36.2298C32.7641 38.8131 33.6887 43.369 33.6848 44.5377C33.6809 45.7065 33.7603 49.4773 30.4658 51.9482C27.7868 53.9573 26.8512 54.782 26.6471 56.89C26.4225 59.2113 26.7295 62.418 25.6737 64.228C24.6254 66.0249 22.9318 68.308 17.6619 67.223C12.5703 66.1747 11.6131 65.0709 8.57808 65.1264C4.48369 65.2014 1.32838 63.594 0.515264 62.0518C-0.297846 60.5095 -0.413027 57.3945 2.16258 55.8417C6.50969 53.2212 9.64889 53.7526 12.5747 50.5256C15.4148 47.393 13.628 39.3053 13.2813 37.8674C12.9281 37.9299 12.576 37.9286 12.5093 37.6741C12.2454 36.6652 10.8629 33.9707 10.1297 33.2067C10.1184 33.1949 10.1051 33.1737 10.0894 33.1432C11.4927 32.4256 12.9303 31.9595 14.419 31.7989ZM9.96929 32.7383C9.40278 31.2567 7.56812 24.2008 7.21955 22.4823C7.18073 22.2907 7.60081 22.2194 7.77349 22.0801C8.35739 21.8056 9.13943 21.5894 9.86684 21.4709C9.94303 21.471 10.0352 21.4514 10.1268 21.4322C10.1397 21.4306 10.1529 21.4288 10.166 21.4272L10.1634 21.4246C10.328 21.391 10.4833 21.3673 10.5309 21.4736C11.2484 23.0676 13.9165 29.8172 14.3341 31.3803C12.7725 31.5665 11.3164 32.0205 9.96929 32.7383ZM7.73839 21.7777C7.66333 21.3262 7.19233 19.7034 6.71861 18.293C7.23872 17.9071 7.81714 17.7906 8.46789 17.7832C8.73077 18.6343 9.30242 20.6222 9.58125 21.1958C8.93211 21.3167 8.28444 21.5271 7.73839 21.7777ZM6.18866 16.7327C6.80188 16.357 7.41141 16.1792 8.01689 16.2308L8.33985 17.3612C7.62886 17.365 7.38531 17.4111 6.58009 17.8818C6.42046 17.4095 6.28096 17.0017 6.18866 16.7327ZM6.10862 16.5001C6.08462 16.4303 6.07142 16.3925 6.07142 16.3925L6.38325 15.7997L6.1819 15.3911L5.58915 15.0794L6.15178 13.9377L6.31722 13.9111H6.41272L7.5359 14.51L7.23646 15.109L7.31138 15.5583L7.91026 15.8579L7.93698 15.9514C7.26578 15.9535 6.65241 16.1254 6.10862 16.5001Z" fill="white"/>
<path d="M52.236 45.62C52.0893 45.62 51.9647 45.576 51.862 45.488C51.774 45.3853 51.73 45.2607 51.73 45.114V32.178H47.506C47.3593 32.178 47.2347 32.134 47.132 32.046C47.044 31.9433 47 31.8187 47 31.672V30.748C47 30.5867 47.044 30.462 47.132 30.374C47.2347 30.2713 47.3593 30.22 47.506 30.22H58.11C58.2713 30.22 58.396 30.2713 58.484 30.374C58.5867 30.462 58.638 30.5867 58.638 30.748V31.672C58.638 31.8187 58.5867 31.9433 58.484 32.046C58.396 32.134 58.2713 32.178 58.11 32.178H53.908V45.114C53.908 45.2607 53.8567 45.3853 53.754 45.488C53.666 45.576 53.5413 45.62 53.38 45.62H52.236Z" fill="white"/>
<path d="M61.6102 45.62C61.4489 45.62 61.3242 45.576 61.2362 45.488C61.1482 45.3853 61.1042 45.2607 61.1042 45.114V30.748C61.1042 30.5867 61.1482 30.462 61.2362 30.374C61.3242 30.2713 61.4489 30.22 61.6102 30.22H70.6962C70.8576 30.22 70.9822 30.2713 71.0702 30.374C71.1582 30.462 71.2022 30.5867 71.2022 30.748V31.584C71.2022 31.7453 71.1582 31.87 71.0702 31.958C70.9822 32.046 70.8576 32.09 70.6962 32.09H63.2162V36.908H70.2122C70.3736 36.908 70.4982 36.9593 70.5862 37.062C70.6742 37.15 70.7182 37.2747 70.7182 37.436V38.25C70.7182 38.3967 70.6742 38.5213 70.5862 38.624C70.4982 38.712 70.3736 38.756 70.2122 38.756H63.2162V43.75H70.8722C71.0336 43.75 71.1582 43.794 71.2462 43.882C71.3342 43.97 71.3782 44.0947 71.3782 44.256V45.114C71.3782 45.2607 71.3342 45.3853 71.2462 45.488C71.1582 45.576 71.0336 45.62 70.8722 45.62H61.6102Z" fill="white"/>
<path d="M79.8396 45.84C78.4903 45.84 77.3683 45.5907 76.4736 45.092C75.5936 44.5933 74.9263 43.8967 74.4716 43.002C74.017 42.1073 73.7676 41.066 73.7236 39.878C73.709 39.2767 73.7016 38.6313 73.7016 37.942C73.7016 37.2527 73.709 36.5927 73.7236 35.962C73.7676 34.774 74.017 33.7327 74.4716 32.838C74.9263 31.9433 75.5936 31.2467 76.4736 30.748C77.3683 30.2493 78.4903 30 79.8396 30C80.8516 30 81.739 30.1393 82.5016 30.418C83.2643 30.6967 83.895 31.0707 84.3936 31.54C84.907 32.0093 85.2956 32.5373 85.5596 33.124C85.8236 33.696 85.9703 34.29 85.9996 34.906C86.0143 35.038 85.9703 35.148 85.8676 35.236C85.7796 35.324 85.6696 35.368 85.5376 35.368H84.3276C84.1956 35.368 84.0783 35.3313 83.9756 35.258C83.8876 35.1847 83.8216 35.0527 83.7776 34.862C83.5283 33.718 83.059 32.9333 82.3696 32.508C81.695 32.0827 80.8443 31.87 79.8176 31.87C78.6443 31.87 77.713 32.2073 77.0236 32.882C76.3343 33.542 75.9603 34.6053 75.9016 36.072C75.8576 37.2747 75.8576 38.5067 75.9016 39.768C75.9603 41.2347 76.3343 42.3053 77.0236 42.98C77.713 43.64 78.6443 43.97 79.8176 43.97C80.8443 43.97 81.695 43.7573 82.3696 43.332C83.059 42.9067 83.5283 42.122 83.7776 40.978C83.8216 40.7873 83.8876 40.6553 83.9756 40.582C84.0783 40.5087 84.1956 40.472 84.3276 40.472H85.5376C85.6696 40.472 85.7796 40.516 85.8676 40.604C85.9703 40.692 86.0143 40.802 85.9996 40.934C85.9703 41.55 85.8236 42.1513 85.5596 42.738C85.2956 43.31 84.907 43.8307 84.3936 44.3C83.895 44.7693 83.2643 45.1433 82.5016 45.422C81.739 45.7007 80.8516 45.84 79.8396 45.84Z" fill="white"/>
<path d="M89.454 45.62C89.2926 45.62 89.168 45.576 89.08 45.488C88.992 45.3853 88.948 45.2607 88.948 45.114V30.748C88.948 30.5867 88.992 30.462 89.08 30.374C89.168 30.2713 89.2926 30.22 89.454 30.22H90.576C90.7373 30.22 90.862 30.2713 90.95 30.374C91.0527 30.462 91.104 30.5867 91.104 30.748V36.82H98.672V30.748C98.672 30.5867 98.716 30.462 98.804 30.374C98.9067 30.2713 99.0313 30.22 99.178 30.22H100.3C100.461 30.22 100.586 30.2713 100.674 30.374C100.777 30.462 100.828 30.5867 100.828 30.748V45.114C100.828 45.2607 100.777 45.3853 100.674 45.488C100.586 45.576 100.461 45.62 100.3 45.62H99.178C99.0313 45.62 98.9067 45.576 98.804 45.488C98.716 45.3853 98.672 45.2607 98.672 45.114V38.8H91.104V45.114C91.104 45.2607 91.0527 45.3853 90.95 45.488C90.862 45.576 90.7373 45.62 90.576 45.62H89.454Z" fill="white"/>
<path d="M105.138 45.62C104.976 45.62 104.852 45.576 104.764 45.488C104.676 45.3853 104.632 45.2607 104.632 45.114V30.748C104.632 30.5867 104.676 30.462 104.764 30.374C104.852 30.2713 104.976 30.22 105.138 30.22H106.15C106.326 30.22 106.458 30.264 106.546 30.352C106.634 30.4253 106.685 30.484 106.7 30.528L114.004 41.748V30.748C114.004 30.5867 114.048 30.462 114.136 30.374C114.224 30.2713 114.348 30.22 114.51 30.22H115.566C115.727 30.22 115.852 30.2713 115.94 30.374C116.042 30.462 116.094 30.5867 116.094 30.748V45.092C116.094 45.2387 116.042 45.3633 115.94 45.466C115.852 45.5687 115.734 45.62 115.588 45.62H114.532C114.37 45.62 114.246 45.576 114.158 45.488C114.084 45.4 114.033 45.3413 114.004 45.312L106.722 34.202V45.114C106.722 45.2607 106.67 45.3853 106.568 45.488C106.48 45.576 106.355 45.62 106.194 45.62H105.138Z" fill="white"/>
<path d="M120.413 45.62C120.252 45.62 120.127 45.576 120.039 45.488C119.951 45.3853 119.907 45.2607 119.907 45.114V30.726C119.907 30.5793 119.951 30.462 120.039 30.374C120.127 30.2713 120.252 30.22 120.413 30.22H121.579C121.726 30.22 121.843 30.2713 121.931 30.374C122.034 30.462 122.085 30.5793 122.085 30.726V45.114C122.085 45.2607 122.034 45.3853 121.931 45.488C121.843 45.576 121.726 45.62 121.579 45.62H120.413Z" fill="white"/>
<path d="M126.429 45.62C126.267 45.62 126.143 45.576 126.055 45.488C125.967 45.3853 125.923 45.2607 125.923 45.114V30.748C125.923 30.5867 125.967 30.462 126.055 30.374C126.143 30.2713 126.267 30.22 126.429 30.22H127.529C127.69 30.22 127.815 30.2713 127.903 30.374C128.005 30.462 128.057 30.5867 128.057 30.748V36.204L133.931 30.572C133.989 30.5133 134.085 30.44 134.217 30.352C134.363 30.264 134.554 30.22 134.789 30.22H135.977C136.094 30.22 136.197 30.264 136.285 30.352C136.373 30.44 136.417 30.5427 136.417 30.66C136.417 30.7773 136.387 30.8727 136.329 30.946L129.531 37.59L136.769 44.872C136.842 44.96 136.879 45.0627 136.879 45.18C136.879 45.2973 136.835 45.4 136.747 45.488C136.659 45.576 136.556 45.62 136.439 45.62H135.207C134.957 45.62 134.767 45.576 134.635 45.488C134.503 45.3853 134.407 45.312 134.349 45.268L128.057 39.064V45.114C128.057 45.2607 128.005 45.3853 127.903 45.488C127.815 45.576 127.69 45.62 127.529 45.62H126.429Z" fill="white"/>
<path d="M53.908 67.84C52.5587 67.84 51.4367 67.5907 50.542 67.092C49.662 66.5933 48.9947 65.8967 48.54 65.002C48.0853 64.1073 47.836 63.066 47.792 61.878C47.7773 61.2767 47.77 60.6313 47.77 59.942C47.77 59.2527 47.7773 58.5927 47.792 57.962C47.836 56.774 48.0853 55.7327 48.54 54.838C48.9947 53.9433 49.662 53.2467 50.542 52.748C51.4367 52.2493 52.5587 52 53.908 52C54.92 52 55.8073 52.1393 56.57 52.418C57.3327 52.6967 57.9633 53.0707 58.462 53.54C58.9753 54.0093 59.364 54.5373 59.628 55.124C59.892 55.696 60.0387 56.29 60.068 56.906C60.0827 57.038 60.0387 57.148 59.936 57.236C59.848 57.324 59.738 57.368 59.606 57.368H58.396C58.264 57.368 58.1467 57.3313 58.044 57.258C57.956 57.1847 57.89 57.0527 57.846 56.862C57.5967 55.718 57.1273 54.9333 56.438 54.508C55.7633 54.0827 54.9127 53.87 53.886 53.87C52.7127 53.87 51.7813 54.2073 51.092 54.882C50.4027 55.542 50.0287 56.6053 49.97 58.072C49.926 59.2747 49.926 60.5067 49.97 61.768C50.0287 63.2347 50.4027 64.3053 51.092 64.98C51.7813 65.64 52.7127 65.97 53.886 65.97C54.9127 65.97 55.7633 65.7573 56.438 65.332C57.1273 64.9067 57.5967 64.122 57.846 62.978C57.89 62.7873 57.956 62.6553 58.044 62.582C58.1467 62.5087 58.264 62.472 58.396 62.472H59.606C59.738 62.472 59.848 62.516 59.936 62.604C60.0387 62.692 60.0827 62.802 60.068 62.934C60.0387 63.55 59.892 64.1513 59.628 64.738C59.364 65.31 58.9753 65.8307 58.462 66.3C57.9633 66.7693 57.3327 67.1433 56.57 67.422C55.8073 67.7007 54.92 67.84 53.908 67.84Z" fill="white"/>
<path d="M63.5223 67.62C63.361 67.62 63.2363 67.576 63.1483 67.488C63.0603 67.3853 63.0163 67.2607 63.0163 67.114V52.748C63.0163 52.5867 63.0603 52.462 63.1483 52.374C63.2363 52.2713 63.361 52.22 63.5223 52.22H85.5596C87.217 52.22 88.5296 52.6087 89.4976 53.386C90.4656 54.1633 90.9496 55.3147 90.9496 56.84C90.9496 57.9693 90.6636 58.8933 90.0916 59.612C89.5343 60.316 88.7716 60.8073 87.8036 61.086L91.1916 66.938C91.2356 67.026 91.2576 67.1067 91.2576 67.18C91.2576 67.2973 91.2063 67.4 91.1036 67.488C91.0156 67.576 90.913 67.62 90.7956 67.62H89.7396C89.4903 67.62 89.307 67.554 89.1896 67.422C89.0723 67.29 88.9696 67.158 88.8816 67.026L85.6916 61.438H65.1723V67.114C65.1723 67.2607 65.121 67.3853 65.0183 67.488C64.9303 67.576 64.8057 67.62 64.6443 67.62H63.5223ZM65.1723 59.568H85.4716C86.5716 59.568 87.393 59.3407 87.9356 58.886C88.4783 58.4167 88.7496 57.7273 88.7496 56.818C88.7496 55.9233 88.4783 55.2413 87.9356 54.772C87.4076 54.3027 86.5863 54.068 85.4716 54.068H65.1723V59.568Z" fill="white"/>
<path d="M94.6077 67.62C94.4463 67.62 94.3217 67.576 94.2337 67.488C94.1457 67.3853 94.1017 67.2607 94.1017 67.114V52.748C94.1017 52.5867 94.1457 52.462 94.2337 52.374C94.3217 52.2713 94.4463 52.22 94.6077 52.22H118.839C119 52.22 119.125 52.2713 119.213 52.374C119.301 52.462 119.345 52.5867 119.345 52.748V53.584C119.345 53.7453 119.301 53.87 119.213 53.958C119.125 54.046 119 54.09 118.839 54.09H96.2137V58.908H118.355C118.516 58.908 118.641 58.9593 118.729 59.062C118.817 59.15 118.861 59.2747 118.861 59.436V60.25C118.861 60.3967 118.817 60.5213 118.729 60.624C118.641 60.712 118.516 60.756 118.355 60.756H96.2137V65.75H119.015C119.176 65.75 119.301 65.794 119.389 65.882C119.477 65.97 119.521 66.0947 119.521 66.256V67.114C119.521 67.2607 119.477 67.3853 119.389 67.488C119.301 67.576 119.176 67.62 119.015 67.62H94.6077Z" fill="white"/>
<path d="M125.184 67.62C124.994 67.62 124.84 67.5687 124.722 67.466C124.62 67.3633 124.546 67.2167 124.502 67.026L121.664 52.902C121.65 52.8433 121.642 52.792 121.642 52.748C121.642 52.704 121.642 52.6747 121.642 52.66C121.642 52.5427 121.686 52.44 121.774 52.352C121.862 52.264 121.965 52.22 122.082 52.22H123.226C123.534 52.22 123.71 52.3447 123.754 52.594L125.998 63.946L128.374 56.158C128.418 56.026 128.492 55.9087 128.594 55.806C128.712 55.6887 128.873 55.63 129.078 55.63H129.892C130.112 55.63 130.274 55.6887 130.376 55.806C130.479 55.9087 130.545 56.026 130.574 56.158L132.972 63.946L135.194 52.594C135.238 52.3447 135.422 52.22 135.744 52.22H136.888C137.006 52.22 137.108 52.264 137.196 52.352C137.284 52.44 137.328 52.5427 137.328 52.66C137.328 52.6747 137.321 52.704 137.306 52.748C137.306 52.792 137.306 52.8433 137.306 52.902L134.468 67.026C134.424 67.2167 134.344 67.3633 134.226 67.466C134.124 67.5687 133.977 67.62 133.786 67.62H132.928C132.723 67.62 132.562 67.5687 132.444 67.466C132.327 67.3633 132.246 67.2313 132.202 67.07L129.474 58.688L126.768 67.07C126.71 67.2313 126.622 67.3633 126.504 67.466C126.402 67.5687 126.248 67.62 126.042 67.62H125.184Z" fill="white"/>
</svg>

<svg xmlns="http://www.w3.org/2000/svg" width="138" height="68" fill="none" viewBox="0 0 138 68">
  <path fill="#fff" fill-rule="evenodd" d="m47.36 0-.671.86s-.009 5.73 0 7.664c.002.605.066 3.027-1.815 3.95-1.898.933-2.923 1.588-3.438 2.377-.541.83-1.056 1.183-1.064 2.977-.008 1.84.006 2.34 0 3.1-.007.886-1.068.935-1.068.935v.9h1.998s.01-2.43 0-3.553c-.01-1.052.204-2.9 3.586-4.349 2.305-.986 2.503-1.753 2.472-4.621V0Zm1.831 10.432V8.278s.487 3.535 2.367 4.459c1.899.932 2.966 1.371 3.56 2.103.559.69 1.064.78 1.07 2.93.005 1.84-.002 2.355.004 3.115.007.886 1.058.967 1.058.967v.9h-1.998s-.01-2.43 0-3.553c.01-1.052.003-2.853-3.635-4.23-2.608-.988-2.43-1.86-2.426-4.537ZM14.419 31.799a.305.305 0 0 1 .005.082c-.15 1.049.3 4.044.674 5.017.07.183-.117.347-.376.484.552 2.04 3.821 15.48-5.24 17.486-9.706 2.15-8.34 8.686-.904 8.686 5.167 0 7.736 2.62 12.528 2.14 5.904-.594 2.239-9.551 5.316-12.922 3.145-3.444 5.487-2.762 5.541-7.712.075-6.89-2.104-12.078 2.77-13.703 1.124-.374 4.418-1.572 4.943-2.546.77-1.431.599-4.567.599-4.567h.973s.26 3.93 0 4.717c-.26.787-.008 1.67-2.92 3.37-2.913 1.7-5.13 1.315-5.347 3.899-.217 2.583.708 7.139.704 8.308-.004 1.169.075 4.94-3.22 7.41-2.678 2.01-3.614 2.834-3.818 4.942-.224 2.321.083 5.528-.973 7.338-1.049 1.797-2.742 4.08-8.012 2.995-5.092-1.048-6.049-2.152-9.084-2.097-4.094.075-7.25-1.532-8.063-3.074-.813-1.542-.928-4.657 1.648-6.21 4.347-2.62 7.486-2.09 10.412-5.316 2.84-3.133 1.053-11.22.706-12.659-.353.063-.705.062-.772-.193-.264-1.009-1.646-3.703-2.38-4.467a.29.29 0 0 1-.04-.064c1.404-.717 2.841-1.184 4.33-1.344Zm-4.45.94c-.566-1.482-2.4-8.538-2.75-10.257-.038-.191.382-.263.554-.402.584-.274 1.366-.49 2.094-.61.076.001.168-.019.26-.038l.039-.005-.003-.002c.165-.034.32-.058.368.049.717 1.594 3.385 8.343 3.803 9.906-1.561.187-3.018.64-4.365 1.358ZM7.74 21.777c-.076-.452-.547-2.075-1.02-3.485.52-.386 1.098-.502 1.749-.51.263.851.834 2.84 1.113 3.413a8.07 8.07 0 0 0-1.843.582Zm-1.55-5.045c.613-.376 1.222-.554 1.828-.502l.323 1.13c-.711.004-.955.05-1.76.52l-.391-1.148Zm-.08-.233-.038-.108.312-.592-.201-.409-.593-.312.563-1.141.165-.027h.096l1.123.599-.3.599.075.45.6.299.026.093c-.671.002-1.285.174-1.828.55Z" clip-rule="evenodd"/>
  <path fill="#fff" d="M52.236 45.62a.555.555 0 0 1-.374-.132.555.555 0 0 1-.132-.374V32.178h-4.224a.555.555 0 0 1-.374-.132.555.555 0 0 1-.132-.374v-.924c0-.161.044-.286.132-.374a.51.51 0 0 1 .374-.154H58.11c.161 0 .286.051.374.154a.466.466 0 0 1 .154.374v.924a.51.51 0 0 1-.154.374c-.088.088-.213.132-.374.132h-4.202v12.936a.51.51 0 0 1-.154.374c-.088.088-.213.132-.374.132h-1.144Zm9.374 0c-.161 0-.286-.044-.374-.132a.555.555 0 0 1-.132-.374V30.748c0-.161.044-.286.132-.374a.466.466 0 0 1 .374-.154h9.086c.162 0 .286.051.374.154.088.088.132.213.132.374v.836c0 .161-.044.286-.132.374-.088.088-.212.132-.374.132h-7.48v4.818h6.996c.162 0 .286.051.374.154.088.088.132.213.132.374v.814a.555.555 0 0 1-.132.374c-.088.088-.212.132-.374.132h-6.996v4.994h7.656c.162 0 .286.044.374.132.088.088.132.213.132.374v.858a.555.555 0 0 1-.132.374c-.088.088-.212.132-.374.132H61.61Zm18.23.22c-1.35 0-2.472-.25-3.366-.748a4.914 4.914 0 0 1-2.002-2.09c-.455-.895-.704-1.936-.748-3.124a85.662 85.662 0 0 1 0-3.916c.044-1.188.293-2.23.748-3.124a4.914 4.914 0 0 1 2.002-2.09c.894-.499 2.016-.748 3.366-.748 1.012 0 1.899.14 2.662.418.762.279 1.393.653 1.892 1.122.513.47.902.997 1.166 1.584.264.572.41 1.166.44 1.782a.36.36 0 0 1-.132.33.448.448 0 0 1-.33.132h-1.21a.59.59 0 0 1-.352-.11c-.088-.073-.154-.205-.198-.396-.25-1.144-.719-1.929-1.408-2.354-.675-.425-1.526-.638-2.552-.638-1.174 0-2.105.337-2.794 1.012-.69.66-1.064 1.723-1.122 3.19a51.753 51.753 0 0 0 0 3.696c.058 1.467.432 2.537 1.122 3.212.689.66 1.62.99 2.794.99 1.026 0 1.877-.213 2.552-.638.689-.425 1.158-1.21 1.408-2.354.044-.19.11-.323.198-.396a.59.59 0 0 1 .352-.11h1.21c.132 0 .242.044.33.132a.36.36 0 0 1 .132.33 4.935 4.935 0 0 1-.44 1.804 4.893 4.893 0 0 1-1.166 1.562c-.499.47-1.13.843-1.892 1.122-.763.279-1.65.418-2.662.418Zm9.614-.22c-.161 0-.286-.044-.374-.132a.555.555 0 0 1-.132-.374V30.748c0-.161.044-.286.132-.374a.466.466 0 0 1 .374-.154h1.122c.161 0 .286.051.374.154a.466.466 0 0 1 .154.374v6.072h7.568v-6.072c0-.161.044-.286.132-.374a.51.51 0 0 1 .374-.154h1.122c.161 0 .286.051.374.154a.465.465 0 0 1 .154.374v14.366a.508.508 0 0 1-.154.374c-.088.088-.213.132-.374.132h-1.122a.555.555 0 0 1-.374-.132.555.555 0 0 1-.132-.374V38.8h-7.568v6.314a.51.51 0 0 1-.154.374c-.088.088-.213.132-.374.132h-1.122Zm15.684 0c-.162 0-.286-.044-.374-.132a.555.555 0 0 1-.132-.374V30.748c0-.161.044-.286.132-.374a.465.465 0 0 1 .374-.154h1.012c.176 0 .308.044.396.132a.49.49 0 0 1 .154.176l7.304 11.22v-11c0-.161.044-.286.132-.374a.465.465 0 0 1 .374-.154h1.056c.161 0 .286.051.374.154a.468.468 0 0 1 .154.374v14.344a.512.512 0 0 1-.154.374.441.441 0 0 1-.352.154h-1.056c-.162 0-.286-.044-.374-.132a3.595 3.595 0 0 0-.154-.176l-7.282-11.11v10.912a.512.512 0 0 1-.154.374c-.088.088-.213.132-.374.132h-1.056Zm15.275 0c-.161 0-.286-.044-.374-.132a.555.555 0 0 1-.132-.374V30.726c0-.147.044-.264.132-.352a.466.466 0 0 1 .374-.154h1.166a.44.44 0 0 1 .352.154.44.44 0 0 1 .154.352v14.388a.508.508 0 0 1-.154.374.475.475 0 0 1-.352.132h-1.166Zm6.016 0c-.162 0-.286-.044-.374-.132a.555.555 0 0 1-.132-.374V30.748c0-.161.044-.286.132-.374a.465.465 0 0 1 .374-.154h1.1c.161 0 .286.051.374.154a.468.468 0 0 1 .154.374v5.456l5.874-5.632c.058-.059.154-.132.286-.22.146-.088.337-.132.572-.132h1.188c.117 0 .22.044.308.132.088.088.132.19.132.308 0 .117-.03.213-.088.286l-6.798 6.644 7.238 7.282c.073.088.11.19.11.308 0 .117-.044.22-.132.308a.423.423 0 0 1-.308.132h-1.232c-.25 0-.44-.044-.572-.132a29.626 29.626 0 0 0-.286-.22l-6.292-6.204v6.05a.512.512 0 0 1-.154.374c-.088.088-.213.132-.374.132h-1.1ZM53.908 67.84c-1.35 0-2.471-.25-3.366-.748a4.914 4.914 0 0 1-2.002-2.09c-.455-.895-.704-1.936-.748-3.124a85.104 85.104 0 0 1 0-3.916c.044-1.188.293-2.23.748-3.124a4.914 4.914 0 0 1 2.002-2.09c.895-.499 2.017-.748 3.366-.748 1.012 0 1.9.14 2.662.418.763.279 1.393.653 1.892 1.122.513.47.902.997 1.166 1.584.264.572.41 1.166.44 1.782a.36.36 0 0 1-.132.33.448.448 0 0 1-.33.132h-1.21a.59.59 0 0 1-.352-.11c-.088-.073-.154-.205-.198-.396-.25-1.144-.719-1.929-1.408-2.354-.675-.425-1.525-.638-2.552-.638-1.173 0-2.105.337-2.794 1.012-.69.66-1.063 1.723-1.122 3.19a51.753 51.753 0 0 0 0 3.696c.059 1.467.433 2.537 1.122 3.212.69.66 1.62.99 2.794.99 1.027 0 1.877-.213 2.552-.638.69-.425 1.159-1.21 1.408-2.354.044-.19.11-.323.198-.396a.59.59 0 0 1 .352-.11h1.21c.132 0 .242.044.33.132a.36.36 0 0 1 .132.33 4.935 4.935 0 0 1-.44 1.804 4.894 4.894 0 0 1-1.166 1.562c-.499.47-1.13.843-1.892 1.122-.763.279-1.65.418-2.662.418Zm9.614-.22c-.161 0-.286-.044-.374-.132a.555.555 0 0 1-.132-.374V52.748c0-.161.044-.286.132-.374a.466.466 0 0 1 .374-.154H85.56c1.657 0 2.97.389 3.938 1.166.968.777 1.452 1.929 1.452 3.454 0 1.13-.286 2.053-.858 2.772-.558.704-1.32 1.195-2.288 1.474l3.388 5.852a.548.548 0 0 1 .066.242c0 .117-.052.22-.154.308a.422.422 0 0 1-.308.132H89.74c-.25 0-.433-.066-.55-.198a3.63 3.63 0 0 1-.308-.396l-3.19-5.588h-20.52v5.676a.51.51 0 0 1-.154.374c-.088.088-.212.132-.374.132h-1.122Zm1.65-8.052h20.3c1.1 0 1.921-.227 2.464-.682.542-.47.814-1.159.814-2.068 0-.895-.272-1.577-.814-2.046-.528-.47-1.35-.704-2.464-.704h-20.3v5.5Zm29.436 8.052c-.162 0-.286-.044-.374-.132a.555.555 0 0 1-.132-.374V52.748c0-.161.044-.286.132-.374a.466.466 0 0 1 .374-.154h24.231c.161 0 .286.051.374.154.088.088.132.213.132.374v.836c0 .161-.044.286-.132.374-.088.088-.213.132-.374.132H96.214v4.818h22.141c.161 0 .286.051.374.154.088.088.132.213.132.374v.814a.555.555 0 0 1-.132.374c-.088.088-.213.132-.374.132H96.214v4.994h22.801c.161 0 .286.044.374.132.088.088.132.213.132.374v.858a.555.555 0 0 1-.132.374c-.088.088-.213.132-.374.132H94.608Zm30.576 0a.678.678 0 0 1-.462-.154.896.896 0 0 1-.22-.44l-2.838-14.124a.683.683 0 0 1-.022-.154v-.088c0-.117.044-.22.132-.308a.423.423 0 0 1 .308-.132h1.144c.308 0 .484.125.528.374l2.244 11.352 2.376-7.788a.9.9 0 0 1 .22-.352c.118-.117.279-.176.484-.176h.814c.22 0 .382.059.484.176.103.103.169.22.198.352l2.398 7.788 2.222-11.352c.044-.25.228-.374.55-.374h1.144c.118 0 .22.044.308.132.088.088.132.19.132.308a.344.344 0 0 1-.022.088v.154l-2.838 14.124a.801.801 0 0 1-.242.44c-.102.103-.249.154-.44.154h-.858c-.205 0-.366-.051-.484-.154a.79.79 0 0 1-.242-.396l-2.728-8.382-2.706 8.382a.93.93 0 0 1-.264.396c-.102.103-.256.154-.462.154h-.858Z"/>
</svg>
